!!!COA:	Josquin des Prez
!!!CDT:	~1450-1521/08/27
!!!OTL@@LAT:	Jubilate Deo omnis terra
!!!OTL@ENG:	Shout with joy to God, all the earth
!!!OTL2@@LAT:	Laudate nomen ejus
!!!OTL2@ENG:	Praise his name
!!!AGN:	Motet
!!!SCT:	NJE 17.7
!!!SCA:	New Josquin Edition 17.7
!!!voices:	4
**kern	**kern	**kern	**kern
*staff4	*staff3	*staff2	*staff1
*Ivox	*Ivox	*Ivox	*Ivox
*I"Bassus	*I"Tenor	*I"Altus	*I"Superius
*I'B	*I'T	*I'A	*I'S
*>[A,B]	*>[A,B]	*>[A,B]	*>[A,B]
*>Part1[A]	*>Part1[A]	*>Part1[A]	*>Part1[A]
*>Part2[B]	*>Part2[B]	*>Part2[B]	*>Part2[B]
*clefF4	*clefGv2	*clefGv2	*clefG2
*k[]	*k[]	*k[]	*k[]
*M2/1	*M2/1	*M2/1	*M2/1
*met(C|)	*met(C|)	*met(C|)	*met(C|)
*>A	*>A	*>A	*>A
!!section:Part 1
=1-	=1-	=1-	=1-
0r	0r	1.d	0r
.	.	2d\	.
=2	=2	=2	=2
0r	0r	1A	1.a
.	.	1d	.
.	.	.	2a/
=3	=3	=3	=3
0r	0r	1c	1e
.	.	1A	1a
=4	=4	=4	=4
0r	0r	2r	1g
.	.	1c	.
.	.	.	1e
.	.	2d\	.
=5	=5	=5	=5
0r	0r	1e	2r
.	.	.	1g
.	.	1c	.
.	.	.	2a/
=6	=6	=6	=6
0r	0r	1d	1b
.	.	1e	1g
=7	=7	=7	=7
0r	0r	2c\	1a
.	.	2d\	.
.	.	1B	1b
=8	=8	=8	=8
0r	0r	2.A/	2.cc\
.	.	4B\	4b\
.	.	4c\	2a/
.	.	4d\	.
.	.	[2e\	[2g/
=9	=9	=9	=9
0r	0r	4e\]	4g/]
.	.	4d\	4f/
.	.	1d	4e/
.	.	.	4d/
.	.	.	1e
.	.	2c#i\	.
=10	=10	=10	=10
1.D	0r	0d	0d
2D\	.	.	.
=11	=11	=11	=11
1AA	1.A	1c	2e/
.	.	.	1f
1D	.	1A	.
.	2A/	.	4e/
.	.	.	4d/
=12	=12	=12	=12
1C	1E	2r	[0e
.	.	1c	.
1AA	1A	.	.
.	.	2d\	.
=13	=13	=13	=13
2r	1G	[0e	0e]
1C	.	.	.
.	1E	.	.
2D\	.	.	.
=14	=14	=14	=14
1E	2r	0e]	0r
.	1G	.	.
1C	.	.	.
.	2A/	.	.
=15	=15	=15	=15
2D\	1B	0r	0r
2.E\	.	.	.
.	1G	.	.
4D\	.	.	.
4C/	.	.	.
4BB/	.	.	.
=16	=16	=16	=16
2AA/	1A	0r	0r
2A\	.	.	.
2G\	2B\	.	.
2E\	[2c\	.	.
=17	=17	=17	=17
2.F\	4c\]	0r	0r
.	4B\	.	.
.	4A/	.	.
4E\	4G/	.	.
2D\	2F/	.	.
[2E\	4E/	.	.
.	4F/	.	.
=18	=18	=18	=18
4E\]	4G/	1r	1r
4C/	4E/	.	.
2D\	1A	.	.
1BB	.	1D	1dd
.	2G#i/	.	.
=19	=19	=19	=19
1AA	0A	2E/	2cc\
.	.	2F/	2a/
2r	.	2E/	1cc
2A\	.	[2e\	.
=20	=20	=20	=20
2G\	0E	2e\]	0b
2E\	.	4d\	.
.	.	4c\	.
1G	.	1B	.
=21	=21	=21	=21
0F	1r	2c\	0a
.	.	2A/	.
.	1A	2c\	.
.	.	2d\	.
=22	=22	=22	=22
1E	2G/	1e	2r
.	2E/	.	2cc\
1r	1G	2d\	2b\
.	.	2B\	2g/
=23	=23	=23	=23
1D	0F	1d	2.a/
.	.	.	4b\
1A	.	[1c	[1cc
=24	=24	=24	=24
1AA	0E	1c]	2cc\]
.	.	.	4b\
.	.	.	4a/
2.E\	.	2B\	[1g
.	.	2G/	.
4F\	.	.	.
=25	=25	=25	=25
4G\	0r	2.B\	1g]
4A\	.	.	.
1G	.	.	.
.	.	4c\	.
.	.	4d\	1r
.	.	4e\	.
4F\	.	[2d\	.
4E\	.	.	.
=26	=26	=26	=26
4F\	0r	4d\]	0r
4E\	.	4c\	.
4D\	.	2.c\	.
4C/	.	.	.
1D	.	.	.
.	.	4B\	.
.	.	2B\	.
=27	=27	=27	=27
0C	2r	0c	2r
.	1e	.	1cc
.	2d\	.	2b\
=28	=28	=28	=28
0r	2c\	0r	2a/
.	2B\	.	2g/
.	2.d\	.	2f/
.	.	.	2e/
.	4c\	.	.
=29	=29	=29	=29
0r	4B\	0r	2d/
.	4A/	.	.
.	1A	.	2c/
.	.	.	1B
.	2G/	.	.
=30	=30	=30	=30
1r	1c	0r	2A/
.	.	.	1a
2r	1B	.	.
[2G\	.	.	2g/
=31	=31	=31	=31
2G\]	1A	1A	1a
2F\	.	.	.
2E\	1G	1B	1r
2D\	.	.	.
=32	=32	=32	=32
2C/	1r	2A/	1r
2BB/	.	1G	.
1AA	1c	.	1a
.	.	2F#i/	.
=33	=33	=33	=33
1GG	2.B\	1G	1b
.	4c\	.	.
2r	1d	2r	1b
2G\	.	[2g\	.
=34	=34	=34	=34
1A	2c\	4g\]	1cc
.	.	4e\	.
.	2A/	2f\	.
2G\	2.B\	2g\	2b\
2F\	.	[2d\	[2a/
.	4c\	.	.
=35	=35	=35	=35
1E	1G	4d\]	4a/]
.	.	4B\	4g/
.	.	2c\	1g
1D	1A	1d	.
.	.	.	2f#i/
=36	=36	=36	=36
2GG/	2r	2B\	0g
2C/	1G	2c\	.
2.C/	.	2G/	.
.	[2G/	[2c\	.
4C/	.	.	.
=37	=37	=37	=37
2E\	4G/]	2c\]	0r
.	4G/	.	.
2D\	2B\	2B\	.
2C/	2A/	2c\	.
[2E\	2G/	2g\	.
=38	=38	=38	=38
4E\]	2.B\	2.g\	0r
4F\	.	.	.
2G\	.	.	.
.	4c\	8e\L	.
.	.	8d\J	.
2G\	1d	1d	.
2G\	.	.	.
=39	=39	=39	=39
1G	2d\	2r	0r
.	2d\	2.g\	.
2r	1d	.	.
.	.	4f\	.
[2G\	.	[2d\	.
=40	=40	=40	=40
2G\]	2r	4d\]	0r
.	.	4e\	.
2D\	1d	2.f\	.
1F	.	.	.
.	.	4e\	.
.	2A/	4c\	.
.	.	4d\	.
=41	=41	=41	=41
2C/	1c	2.e\	0r
1E	.	.	.
.	.	4d\	.
.	2G/	2.B\	.
2E\	[2B\	.	.
.	.	4c\	.
=42	=42	=42	=42
1D	2B\]	0d	0r
.	2B\	.	.
2r	1A	.	.
2F\	.	.	.
=43	=43	=43	=43
2E\	2r	1c	0r
2F\	2c\	.	.
2D\	2B\	1r	.
2F\	2A/	.	.
=44	=44	=44	=44
2.E\	2.c\	0r	0r
4D\	4B\	.	.
2C/	2A/	.	.
2BB/	2G#i/	.	.
=45	=45	=45	=45
1AA	0A	1r	1.cc
2r	.	[1f	.
[2A\	.	.	2cc\
=46	=46	=46	=46
2A\]	2r	2f\]	1a
2F\	1d	2f\	.
[1G	.	1d	1b
.	2d\	.	.
=47	=47	=47	=47
2G\]	1B	1e	1g
2E\	.	.	.
1A	1c	1c	2r
.	.	.	[2cc\
=48	=48	=48	=48
1F	1A	2r	2cc\]
.	.	2f\	2a/
[1G	2r	[1d	1b
.	[2d\	.	.
=49	=49	=49	=49
1G]	2d\]	1d]	1g
.	2B\	.	.
1C	1c	1e	2r
.	.	.	[2cc\
=50	=50	=50	=50
1F	2A/	2c\	2cc\]
.	1d	1f	2a/
1G	.	.	1b
.	2B\	2d\	.
=51	=51	=51	=51
1C	1c	1e	1.g
2G\	2B\	2d\	.
2F\	2A/	[2d\	[2a/
=52	=52	=52	=52
1E	2B\	2d\]	2a/]
.	2c\	2c\	1g
1D	1A	1d	.
.	.	.	2f#i/
=53	=53	=53	=53
2E\	1G	2B\	0g
2.C/	.	1.e	.
.	[1c	.	.
4D\	.	.	.
2E\	.	.	.
=54	=54	=54	=54
1AA	2c\]	0c	1.cc
.	2c\	.	.
2r	1c	.	.
[2F\	.	.	2cc\
=55	=55	=55	=55
2F\]	1A	2r	1cc
2F\	.	1f	.
1F	[1d	.	1a
.	.	2f\	.
=56	=56	=56	=56
1D	2d\]	1f	1.dd
.	2d\	.	.
2r	1B	1d	.
[2G\	.	.	2dd\
=57	=57	=57	=57
2G\]	1G	2r	1b
2G\	.	1g	.
1E	[1c	.	1g
.	.	2g\	.
=58	=58	=58	=58
1C	2c\]	1e	1.cc
.	2c\	.	.
2r	2c\	1c	.
[2F\	2c\	.	2cc\
=59	=59	=59	=59
2F\]	1c	2r	2cc\
2F\	.	1f	2cc\
2F\	1A	.	1cc
2F\	.	2f\	.
=60	=60	=60	=60
1F	1d	2f\	1a
.	.	2f\	.
1D	2d\	1f	1dd
.	2d\	.	.
=61	=61	=61	=61
2r	1B	1d	2dd\
2G\	.	.	2dd\
2G\	1G	2r	1b
2G\	.	2g\	.
=62	=62	=62	=62
1E	0c	2g\	1g
.	.	2g\	.
1C	.	1e	[1cc
=63	=63	=63	=63
1F	1c	1c	1cc]
[1F	[1A	1f	1cc
=64	=64	=64	=64
2F\]	1A]	1f	1a
2D\	.	.	.
[1D	[1A	2f\	[1dd
.	.	[2f\	.
=65	=65	=65	=65
2D\]	2A/]	2f\]	2dd\]
2D\	2A/	2f\	2dd\
2D\	2A/	2f\	2dd\
2D\	2A/	2f\	2dd\
=66	=66	=66	=66
1E	1G	0e	1b
1C	1E	.	1cc
=67	=67	=67	=67
2.D\	[0F	0d	1.a
4E\	.	.	.
2F\	.	.	.
2G\	.	.	2b\
=68	=68	=68	=68
1A	0F]	1.c	1.cc
1AA	.	.	.
.	.	2d\	4b\
.	.	.	4a/
=69	=69	=69	=69
2.C/	[0E	1.e	[0g
4D\	.	.	.
2E\	.	.	.
2F\	.	4d\	.
.	.	4c\	.
=70	=70	=70	=70
1.G	0E_	[0B	0g_
2E\	.	.	.
=71	=71	=71	=71
0E	0E]	0B]	0g]
!!LO:LB:i:g=z
=72||	=72||	=72||	=72||
*>B	*>B	*>B	*>B
!!section:Part 2
!!!OMD: Secunda pars: Laudate nomen
*M2/1	*M2/1	*M2/1	*M2/1
*met(C|)	*met(C|)	*met(C|)	*met(C|)
0AA	0A	0e	0cc
=73	=73	=73	=73
0C	1G	1e	1cc
.	1G	1e	1cc
=74	=74	=74	=74
1GG	0G	1.d	0b
1G	.	.	.
.	.	2e\	.
=75	=75	=75	=75
1.F	[0c	0f	0a
4E\	.	.	.
4D\	.	.	.
=76	=76	=76	=76
2E\	0c]	2r	1r
2F\	.	2.c\	.
1C	.	.	1a
.	.	4d\	.
.	.	[2e\	.
=77	=77	=77	=77
0F	1r	2e\]	1a
.	.	4d\	.
.	.	4c\	.
.	1A	1d	1a
=78	=78	=78	=78
1E	1B	2e\	1g
.	.	2.E/	.
1C	[1c	.	1e
.	.	4F/	.
.	.	[2G/	.
=79	=79	=79	=79
0D	2c\]	2G/]	0f
.	4B\	4F/	.
.	4A/	4E/	.
.	1B	1F	.
=80	=80	=80	=80
4AA/	1c	0G	1e
4BB/	.	.	.
4C/	.	.	.
4D\	.	.	.
2.E\	2.G/	.	[1g
4F\	4A/	.	.
=81	=81	=81	=81
1.G	2B\	0r	2g/]
.	2c\	.	2a/
.	2d\	.	2b\
2C/	2e\	.	2cc\
=82	=82	=82	=82
2G\	1.d	1r	2.dd\
2D\	.	.	.
.	.	.	4cc\
[1G	.	1d	2b\
.	2c\	.	2a/
=83	=83	=83	=83
2G\]	2B\	1.g	1g
2F\	2A/	.	.
2E\	2G/	.	1cc
2C/	2c\	2e\	.
=84	=84	=84	=84
2G\	2d\	1d	2b\
1.D	2.f\	.	2.dd\
.	.	1f	.
.	4e\	.	4cc\
.	4d\	.	4b\
.	4c\	.	4a/
=85	=85	=85	=85
2E\	2B\	2e\	2g/
2F\	2A/	2d\	1a
1E	1B	1e	.
.	.	.	2g#i/
=86	=86	=86	=86
2F\	1.A	2c\	0a
2D\	.	1f	.
2F\	.	.	.
2G\	2B\	4e\	.
.	.	4d\	.
=87	=87	=87	=87
2A\	2c\	2c\	1r
2D\	1d	2f\	.
1A	.	1e	[1a
.	2c\	.	.
=88	=88	=88	=88
2.D\	1d	1d	2a/]
.	.	.	2a/
4C/	.	.	.
1AA	[1c	[1e	1a
=89	=89	=89	=89
0E	2c\]	0e]	1g
.	4B\	.	.
.	4A/	.	.
.	1B	.	1g
=90	=90	=90	=90
1F	1A	2c\	1a
.	.	2A/	.
2E\	2r	2B\	1g
2C/	[2c\	2c\	.
=91	=91	=91	=91
2F\	2c\]	1A	1a
2D\	1d	.	.
1G	.	1G	1b
.	2B\	.	.
=92	=92	=92	=92
1C	2c\	2.c\	2g/
.	2.e\	.	2.cc\
.	.	4d\	.
2r	.	1e	.
.	4d\	.	4b\
2C/	4c\	.	4a/
.	4B\	.	4g/
=93	=93	=93	=93
2D\	2A/	2d\	2f/
2E\	2G/	2c\	1g
1D	1A	1d	.
.	.	.	2f#i/
=94	=94	=94	=94
0GG	2G/	2B\	1g
.	1c	2c\	.
.	.	1d	2r
.	2B\	.	2g/
=95	=95	=95	=95
2r	2c\	0r	1a
2D\	2A/	.	.
2GG/	1d	.	1b
2G\	.	.	.
=96	=96	=96	=96
1.A	0c	0r	1.cc
2G\	.	.	2b\
=97	=97	=97	=97
2F\	2d\	1r	2a/
2E\	1e	.	2g/
1F	.	1A	1a
.	2d\	.	.
=98	=98	=98	=98
[0E	[0e	2B\	2g/
.	.	1e	1cc
.	.	4d\	[2b\
.	.	4c\	.
=99	=99	=99	=99
0E]	0e]	4d\	2b\]
.	.	4c\	.
.	.	4B\	1a
.	.	4A/	.
.	.	1B	.
.	.	.	2g#i/
=100	=100	=100	=100
2F\	1r	2A/	[0a
2D\	.	2d\	.
1A	1c	1e	.
=101	=101	=101	=101
1D	1.d	1.f	0a]
[1F	.	.	.
.	2c\	2e\	.
=102	=102	=102	=102
2F\]	2d\	2d\	0r
2E\	2e\	1c	.
1D	1f	.	.
.	.	2B\	.
=103	=103	=103	=103
[0C	0e	0c	0g
=104	=104	=104	=104
1C]	1c	0r	1a
[1BB	[1d	.	2b\
.	.	.	[2dd\
=105	=105	=105	=105
0BB]	1d]	0d	4dd\]
.	.	.	4cc\
.	.	.	4b\
.	.	.	4a/
.	1B	.	1g#i
=106	=106	=106	=106
0AA	0c	1c	0a
.	.	1A	.
=107	=107	=107	=107
0E	1B	1.B	0g
.	1G	.	.
.	.	2c\	.
=108	=108	=108	=108
0D	0A	0d	0r
=109	=109	=109	=109
1GG	0G	2B\	0r
.	.	2.d\	.
2r	.	.	.
.	.	4c\	.
2GG/	.	4B\	.
.	.	4A/	.
=110	=110	=110	=110
4GG/	2r	1G	0r
4AA/	.	.	.
4BB/	1d	.	.
4C/	.	.	.
4D\	.	1r	.
4E\	.	.	.
4F\	4c\	.	.
4G\	4B\	.	.
=111	=111	=111	=111
2A\	2c\	0r	1r
1G	2B\	.	.
.	1A	.	1a
2F#i\	.	.	.
=112	=112	=112	=112
1G	0G	1d	1b
1C	.	1e	[1cc
=113	=113	=113	=113
0F	0A	1c	2cc\]
.	.	.	2b\
.	.	1d	1a
=114	=114	=114	=114
2E\	2B\	2e\	2g/
2F\	2A/	2c\	2.a/
2D\	1d	[1d	.
.	.	.	4g/
2F\	.	.	4f/
.	.	.	4e/
=115	=115	=115	=115
2G\	2B\	2d\]	2d/
2E\	2c\	2c\	1g
1D	1A	1d	.
.	.	.	2f#i/
=116	=116	=116	=116
2.E\	0G	1B	1g
4F\	.	.	.
2G\	.	2r	2e/
2E\	.	[2B\	[2g/
=117	=117	=117	=117
2G\	1r	2B\]	4g/]
.	.	.	4f/
2A\	.	2c\	1e
1F	1D	1A	.
.	.	.	2d/
=118	=118	=118	=118
1.E	2.G/	2G/	[0el
.	.	2c\	.
.	4A/	.	.
.	2B\	2B\	.
[2AA/	[2c\	[2e\	.
=119	=119	=119	=119
4AA/]	4c\]	4e\]	0e_
4BB/	4B\	4d\	.
4C/	1A	2c\	.
4D\	.	.	.
1E	.	1B	.
.	2G#i/	.	.
=120	=120	=120	=120
0AA	0A	2A/	0e_
.	.	1c	.
.	.	4B\	.
.	.	4A/	.
=121	=121	=121	=121
0E	1.G	1.B	0e_
.	2E/	2G/	.
=122	=122	=122	=122
1.C	[0El	1.G	0e_
2AA/	.	2A/	.
=123	=123	=123	=123
0AA	0E_	0A	0e_
=124	=124	=124	=124
0EEl	0E]	0Gl	0e]
==	==	==	==
*-	*-	*-	*-
!!!RDF**kern: l=long note in original notation
!!!RDF**kern: i=editorial accidental
!!!ENC:	Victoria Chang
!!!END:	2011/03/22/
!!!SMS:	Smijers, Albert. Werken, Motetten, No. 66, afl. 41. 
!!!SMS:	Greenberg, Noah and Maynard, Paul. "An Anthology of Renaissance Music" (London, 1975), pp. 110-117. 
!!!SMS:	Dixon, Graham. "Masterworks from Rome". Faber Motet Series (London, 1994), pp. 27-32. 
!!!EED:	Jesse Rodin
!!!EEV:	2011/04/03/
!!attribution-level@Jos: 4 (questionable)
!!!ONB:	Translated from MusicXML and edited on 2011/04/03/ by Craig Sapp
!!muse2ps:  u^(2) @{OTL2}^C^@{COA}?\n@{SCT}^v90,90,90,150fi2I150Q16
!!onb: added section label to m72, repeated met. [2011/03/25/]
!!onb:	created 2. from [2 4] in m15, m26, m39, m40, m53, m76, m78, m84, m92, m109, m114. [2011/03/25/]
